src/images/header/close-union-icon.svg

<svg fill="none" height="20" viewBox="0 0 20 20" width="20" xmlns="http://www.w3.org/2000/svg"><path clip-rule="evenodd" d="m8.93932 10-8.585896 8.5857 1.060646 1.0607 8.58592-8.5857 8.58591 8.5857 1.0607-1.0607-8.5859-8.5857 8.5859-8.58569-1.0607-1.060672-8.58591 8.585732-8.58592-8.585728-1.060646 1.060668z" fill="#fff" fill-rule="evenodd"/></svg>

<svg width="20" height="20" viewBox="0 0 20 20" fill="none" xmlns="http://www.w3.org/2000/svg">
<path fill-rule="evenodd" clip-rule="evenodd" d="M8.93932 10L0.353424 18.5857L1.41407 19.6464L9.99999 11.0607L18.5859 19.6464L19.6466 18.5857L11.0607 10L19.6466 1.41431L18.5859 0.353638L9.99999 8.93937L1.41407 0.353642L0.353424 1.41431L8.93932 10Z" fill="white"/>
</svg>
